X:1
T:NEFERTITI
C:Wayne Shorter
Z:www.realbook.site
L:1/8
M:4/4
I:linebreak $
K:Ab
V:1 treble nm=" " snm=" "
V:1
|:"Abmaj7#11" z4 c3 _c |"Dbsus4" B2 F2 C2 E2 |"Gm7b5" D6 CD- |"Gb7/C" D6 A,D- |$"Cbmaj7" D6 E2- | %5
"Cbmaj9#11" E2 F4 z G |"Bbm7b5" A6 =A2- |"Eb7b9#11" A8 |$"E69#11" _A7 G |"D2/A" ^F2 =D2 =A,4 | %10
"Gbmaj7#11/Bb" z4 B3 =A |"E2" ^G2 =E2 =B,2 _B,=A,- |$"E133" A,6 ^C=A,- |"Bbmaj/Eb" A,8 | %14
 z8"Bbmaj" |"Eb13#911/A" z8 :| %16

